src/icons/svg/map-o.svg

<?xml version="1.0"?><svg xmlns="http://www.w3.org/2000/svg" width="40" height="40" viewBox="0 0 40 40"><path  d="m39.2 2.8q0.6 0.4 0.6 1.1v27.3q0 0.4-0.3 0.7t-0.5 0.4l-12.4 5q-0.5 0.2-1 0l-11.9-4.8-12 4.8q-0.2 0.1-0.5 0.1-0.3 0-0.7-0.2-0.5-0.4-0.5-1.1v-27.3q0-0.4 0.2-0.7t0.6-0.4l12.4-5q0.5-0.2 0.9 0l12 4.8 11.9-4.8q0.7-0.2 1.2 0.1z m-24.9 2.6v24.7l11.2 4.5v-24.7z m-11.8 4.3v24.6l10.5-4.2v-24.7z m34.8 20.6v-24.6l-10.6 4.2v24.7z"></path></svg>

<svg xmlns="http://www.w3.org/2000/svg" width="40" height="40" viewBox="0 0 40 40"><path d="M39.2 2.8q.6.4.6 1.1v27.3q0 .4-.3.7t-.5.4l-12.4 5q-.5.2-1 0l-11.9-4.8-12 4.8q-.2.1-.5.1t-.7-.2q-.5-.4-.5-1.1V8.8q0-.4.2-.7t.6-.4l12.4-5q.5-.2.9 0l12 4.8L38 2.7q.7-.2 1.2.1zM14.3 5.4v24.7l11.2 4.5V9.9zM2.5 9.7v24.6L13 30.1V5.4zm34.8 20.6V5.7L26.7 9.9v24.7z"/></svg>
